geocatbridge/servers/views/geonetwork.svg

<?xml version="1.0" encoding="UTF-8" standalone="no"?>
<svg width="32" height="32" viewBox="0 0 32 32" version="1.1" xmlns="http://www.w3.org/2000/svg">
    <path d="M22.381,30.583l0,0c-0.104,-0.529 -2.848,-0.628 -6.088,-0.628c-4.576,-0 -8.414,-0.652 -9.451,-1.452l0.001,-0.002c-1.653,-1.269 -3.037,-2.864 -4.067,-4.686c0.758,1.356 6.521,2.426 13.517,2.426c2.479,-0 4.741,0.177 6.459,0.464c2.006,0.335 3.269,0.83 3.269,1.374c0,0.135 -0.078,0.281 -0.226,0.407l-0,0.034c-1.041,0.804 -2.187,1.407 -3.414,2.063Zm6.287,-5.27c0,0.124 -0.038,0.237 -0.111,0.341c1.137,-1.48 2.079,-3.192 2.622,-5.024c0.026,-0.079 0.039,-0.165 0.039,-0.245c-0,-1.777 -6.682,-3.217 -14.925,-3.217c-8.468,-0 -15.34,-1.415 -15.34,-3.192l-0.001,-0.035c-0.112,0.75 -0.17,1.517 -0.17,2.297c0,1.138 0.124,2.248 0.358,3.317c0.24,1.124 3.207,2.086 7.521,2.621c2.242,0.278 4.85,0.422 7.632,0.422c6.834,-0 12.375,1.215 12.375,2.715Zm-9.286,-15.538c0.17,1.682 0.275,3.53 0.303,5.475c6.608,-0.331 11.53,-1.608 11.53,-3.134c0,-0.079 -0.01,-0.16 -0.036,-0.238c-0.557,-1.89 -1.466,-3.629 -2.652,-5.143c0.092,0.133 0.141,0.271 0.141,0.41c0,1.265 -3.946,2.329 -9.286,2.63Zm-3.096,-3.525c-0.861,-0 -1.658,-0.02 -2.454,-0.058c-0.202,1.076 -0.376,2.283 -0.507,3.589c-5.399,-0.292 -9.404,-1.361 -9.404,-2.636c-0,-0.14 0.048,-0.278 0.14,-0.412c-1.193,1.523 -2.118,3.272 -2.674,5.176c-0.02,0.069 -0.022,0.138 -0.022,0.207c0,1.777 6.793,3.217 14.921,3.217l-0,-9.083Zm5.817,-3.996c-0,-0.275 -0.398,-0.53 -1.074,-0.739l0.001,-0.002c-1.494,-0.477 -3.085,-0.734 -4.737,-0.734c-1.7,-0 -3.336,0.272 -4.867,0.776l0.001,0.002c-0.596,0.2 -0.943,0.44 -0.943,0.697c0,0.703 2.601,1.274 5.809,1.274c3.209,0 5.81,-0.571 5.81,-1.274Z"
          fill="#000000"/>
</svg>

<?xml version="1.0" encoding="UTF-8" standalone="no"?>
<!DOCTYPE svg PUBLIC "-//W3C//DTD SVG 1.1//EN" "http://www.w3.org/Graphics/SVG/1.1/DTD/svg11.dtd">
<svg width="100%" height="100%" viewBox="0 0 32 32" version="1.1" xmlns="http://www.w3.org/2000/svg" xmlns:xlink="http://www.w3.org/1999/xlink" xml:space="preserve" xmlns:serif="http://www.serif.com/" style="fill-rule:evenodd;clip-rule:evenodd;stroke-linejoin:round;stroke-miterlimit:2;">
    <g transform="matrix(0.996408,0,0,0.996408,0.0956995,0.0144569)">
        <circle cx="15.962" cy="16.043" r="16.024" style="fill:white;"/>
    </g>
    <g transform="matrix(0.971139,0,0,0.971139,0.15686,0.307109)">
        <path d="M22.381,30.583C22.277,30.054 19.533,29.955 16.293,29.955C11.717,29.955 7.879,29.303 6.842,28.503L6.843,28.501C5.19,27.232 3.806,25.637 2.776,23.815C3.534,25.171 9.297,26.241 16.293,26.241C18.772,26.241 21.034,26.418 22.752,26.705C24.758,27.04 26.021,27.535 26.021,28.079C26.021,28.214 25.943,28.36 25.795,28.486L25.795,28.52C24.754,29.324 23.608,29.927 22.381,30.583ZM28.668,25.313C28.668,25.437 28.63,25.55 28.557,25.654C29.694,24.174 30.636,22.462 31.179,20.63C31.205,20.551 31.218,20.465 31.218,20.385C31.218,18.608 24.536,17.168 16.293,17.168C7.825,17.168 0.953,15.753 0.953,13.976L0.952,13.941C0.84,14.691 0.782,15.458 0.782,16.238C0.782,17.376 0.906,18.486 1.14,19.555C1.38,20.679 4.347,21.641 8.661,22.176C10.903,22.454 13.511,22.598 16.293,22.598C23.127,22.598 28.668,23.813 28.668,25.313ZM19.382,9.775C19.552,11.457 19.657,13.305 19.685,15.25C26.293,14.919 31.215,13.642 31.215,12.116C31.215,12.037 31.205,11.956 31.179,11.878C30.622,9.988 29.713,8.249 28.527,6.735C28.619,6.868 28.668,7.006 28.668,7.145C28.668,8.41 24.722,9.474 19.382,9.775ZM16.286,6.25C15.425,6.25 14.628,6.23 13.832,6.192C13.63,7.268 13.456,8.475 13.325,9.781C7.926,9.489 3.921,8.42 3.921,7.145C3.921,7.005 3.969,6.867 4.061,6.733C2.868,8.256 1.943,10.005 1.387,11.909C1.367,11.978 1.365,12.047 1.365,12.116C1.365,13.893 8.158,15.333 16.286,15.333L16.286,6.25ZM22.103,2.254C22.103,1.979 21.705,1.724 21.029,1.515L21.03,1.513C19.536,1.036 17.945,0.779 16.293,0.779C14.593,0.779 12.957,1.051 11.426,1.555L11.427,1.557C10.831,1.757 10.484,1.997 10.484,2.254C10.484,2.957 13.085,3.528 16.293,3.528C19.502,3.528 22.103,2.957 22.103,2.254Z" style="fill:rgb(13,151,206);fill-rule:nonzero;"/>
    </g>
</svg>
